icons/1_Primary/PeeringDB.svg

<svg width="1024" height="1024" viewBox="0 0 1024 1024" fill="none" xmlns="http://www.w3.org/2000/svg">
<g clip-path="url(#clip0_2_3114)">
<path d="M512 1024C794.77 1024 1024 794.77 1024 512C1024 229.23 794.77 0 512 0C229.23 0 0 229.23 0 512C0 794.77 229.23 1024 512 1024Z" fill="#56595B"/>
<path d="M499.92 258C507.44 255.64 515.55 255.11 523.06 257.83C576.093 275.277 629.127 292.747 682.16 310.24C688.638 312.4 694.272 316.546 698.261 322.089C702.249 327.632 704.39 334.291 704.38 341.12C704.38 360.76 704.7 380.44 704.23 400.12C703.56 418.81 684.23 433.72 665.98 429.61C622.68 420.35 579.5 410.42 536.25 400.87C526.1 398.75 515.67 395.1 505.25 397.71C466.65 407.49 428.25 418.14 389.63 427.8C370.94 432.7 350.48 417.3 350.43 397.91C350.06 373.25 350.18 348.56 350.43 323.91C350.43 309.8 361.16 297.08 374.69 293.72C416.37 281.69 458.18 270 499.92 258ZM495.19 442.76C504.37 440.76 514 438.28 523.29 441.22C566.07 453.22 608.78 465.48 651.51 477.55C664.43 480.64 675.77 491.86 676.35 505.55C676.23 527.85 677.94 550.4 675.35 572.55C671.54 585.14 659.25 594.25 646.18 594.87C605.59 598.2 564.98 601.07 524.41 604.35C518.243 604.863 512.049 604.953 505.87 604.62C448.73 601.04 391.59 597.93 334.45 594.32C318.6 593.85 304.39 580.32 303.67 564.32C303.12 547.17 303.55 529.98 303.45 512.8C303.13 502.67 307.28 492.34 315.27 485.95C322.71 479.58 332.79 478.46 341.95 476.34C393.023 465.173 444.103 453.98 495.19 442.76ZM375.76 636.25C380.34 635.25 385.07 635.58 389.67 635.98C424.04 639.66 458.41 643.17 492.75 646.78C502.18 647.85 511.66 649.12 521.17 648.17C570.17 643.77 619.1 639.53 668.08 635.17C681.08 633.3 694.93 639.65 701.3 651.27C707.3 661.37 705.3 673.57 705.58 684.74C705.23 695.74 707.35 707.86 701.4 717.86C696.67 726.62 687.64 732.34 677.98 734.16C626.647 745.033 575.263 755.893 523.83 766.74C516.446 768.518 508.727 768.345 501.43 766.24C459.15 755.54 416.79 745.14 374.56 734.36C360.18 730.93 349.56 716.84 350.27 702.06C350.64 687.75 349 673.19 351.46 659.01C353.072 653.373 356.184 648.278 360.463 644.27C364.742 640.262 370.029 637.49 375.76 636.25Z" fill="white"/>
</g>
<defs>
<clipPath id="clip0_2_3114">
<rect width="1024" height="1024" fill="white"/>
</clipPath>
</defs>
</svg>

<svg xmlns="http://www.w3.org/2000/svg" width="1024" height="1024" fill="none">
   <g clip-path="url(#a)">
      <path fill="#56595B" d="M512 1024c282.77 0 512-229.23 512-512S794.77 0 512 0 0 229.23 0 512s229.23 512 512 512Z"/>
      <path fill="#fff" d="M499.92 258c7.52-2.36 15.63-2.89 23.14-.17a214078.662 214078.662 0 0 1 159.1 52.41 32.505 32.505 0 0 1 16.101 11.849 32.505 32.505 0 0 1 6.119 19.031c0 19.64.32 39.32-.15 59-.67 18.69-20 33.6-38.25 29.49-43.3-9.26-86.48-19.19-129.73-28.74-10.15-2.12-20.58-5.77-31-3.16-38.6 9.78-77 20.43-115.62 30.09-18.69 4.9-39.15-10.5-39.2-29.89-.37-24.66-.25-49.35 0-74 0-14.11 10.73-26.83 24.26-30.19C416.37 281.69 458.18 270 499.92 258Zm-4.73 184.76c9.18-2 18.81-4.48 28.1-1.54 42.78 12 85.49 24.26 128.22 36.33 12.92 3.09 24.26 14.31 24.84 28-.12 22.3 1.59 44.85-1 67-3.81 12.59-16.1 21.7-29.17 22.32-40.59 3.33-81.2 6.2-121.77 9.48-6.167.513-12.361.603-18.54.27-57.14-3.58-114.28-6.69-171.42-10.3-15.85-.47-30.06-14-30.78-30-.55-17.15-.12-34.34-.22-51.52-.32-10.13 3.83-20.46 11.82-26.85 7.44-6.37 17.52-7.49 26.68-9.61a168188.75 168188.75 0 0 0 153.24-33.58ZM375.76 636.25c4.58-1 9.31-.67 13.91-.27 34.37 3.68 68.74 7.19 103.08 10.8 9.43 1.07 18.91 2.34 28.42 1.39 49-4.4 97.93-8.64 146.91-13 13-1.87 26.85 4.48 33.22 16.1 6 10.1 4 22.3 4.28 33.47-.35 11 1.77 23.12-4.18 33.12-4.73 8.76-13.76 14.48-23.42 16.3a179427.284 179427.284 0 0 1-154.15 32.58 43.812 43.812 0 0 1-22.4-.5c-42.28-10.7-84.64-21.1-126.87-31.88-14.38-3.43-25-17.52-24.29-32.3.37-14.31-1.27-28.87 1.19-43.05a32.405 32.405 0 0 1 24.3-22.76Z"/>
   </g>
   <defs>
      <clipPath id="a">
         <path fill="#fff" d="M0 0h1024v1024H0z"/>
      </clipPath>
   </defs>
</svg>
